X: 743
T: Chanjun xiaodiao
%%abc-version 2.0
%%abcx-abcm2ps-target-version 5.9.1 (29 Sep 2008)
%%abc-creator hum2abc beta
%%abcx-conversion-date 2013/10/02 07:52:30
%%abc-edited-by Helmut Schaffrath
%%humdrum-veritas 714038226
%%humdrum-veritas-data 2490124906
%%continueall 1
%%barnumbers 0
L: 1/8
M: 4/8
K: F
c c Bc2 [I:setbarnb 1]| 
d2AG2 | 
c c Bc2 | 
d2AG2 | 
f2d/ d/ f d | 
c/ c/ f c B | 
G G/ F/ E F | 
G2DC2 |]  



